X:1
T:Bill Hart's Jig
M:6/8
L:1/8
Q:80
C:Arranged by T. Tully
S:Jig
K:HP
d{e}d{c}d{g}def|
{gef}edB{gde}dB{G}A|
d{e}d{G}d{gef}edB|  !
{g}dBe{g}ABcd{e}d{c}d{g}dAd|
{gef}edB{g}def|
{gf}g2e{g}fdB|  !
{g}A{d}A{e}A{gAGAG}A3d{e}d{c}d{g}dAd|
{gef}edB{gde}dB{G}A|
d{e}d{c}d{gef}edB|  !
{g}dBe{g}ABcd{e}d{c}d{g}dAd|
{gef}edB{g}def|
{gf}g2e{g}fdB|  !
{g}A{d}A{e}A{gAGAG}A3|]
{g}fge{g}fed|
e{g}e{A}e{gef}edB|  !
{g}fge{g}fdB|
{gBd}BAB{g}def{g}fge{g}fed|
e{g}e{A}e{g}efg|  !
age{gef}edB|
{g}dBe{g}A3:|

